X:1
T:Title
L:1/8
M:4/4
K:C
V:1 treble nm="Grand Piano"
V:1
 z4 z[Q:1/4=100] ccB | A2 AA AABA | G4- GGAG | F2 F2 FFGF | E4- EccB | A2 A2 BABA | G4- GGAG | %7
 F2 F2 GFGF | E4- EEEF | G2 G2 GFGF | E4- EEEE | A2 A2 AGAG | F4- FFFF | B2 B2 BABA | G2 c2- cccc | %15
 c2 c2 ccBd | c6 z2 |] %17

